resources/WikimediaUI-icons-SVGs/userAdd-ltr.svg

<?xml version="1.0" encoding="UTF-8"?>
<svg xmlns="http://www.w3.org/2000/svg" width="20" height="20" viewBox="0 0 20 20">
	<title>
		add user
	</title>
	<path d="m14 0v4h-4v2h4v4h2v-4h4v-2h-4v-4h-2zm-5.5 7c-1.93 0-3.5 1.57-3.5 3.5s1.57 3.5 3.5 3.5c1.93 0 3.5-1.57 3.5-3.5s-1.57-3.5-3.5-3.5zm-0.5 8c-4.6 0-7 2.69-7 4.23v0.77h14v-0.77c0-1.54-2.4-4.23-7-4.23z"/>
</svg>

<?xml version="1.0" encoding="UTF-8"?>
<svg xmlns="http://www.w3.org/2000/svg" width="20" height="20" viewBox="0 0 20 20">
	<title>
		add user
	</title>
	<path d="M14 0v4h-4v2h4v4h2V6h4V4h-4V0h-2zM8.5 7C6.57 7 5 8.57 5 10.5S6.57 14 8.5 14s3.5-1.57 3.5-3.5S10.43 7 8.5 7zM8 15c-4.6 0-7 2.69-7 4.23V20h14v-.77C15 17.69 12.6 15 8 15z"/>
</svg>
